X: 2436
M: 3/8
L: 1/16
K: G
d2 |\
g2g2 fe | d2d2B2 | c2c2A2 | B2B2d2 |\
g2g2 fe | d2d2B2 | c2c2A2 | G4 |]
d2 |\
gfagfe | d2d2 Bd | c2c2 Ac | B2B2d2 |\
gfagfe | d2d2 Bd | c2cBcA | G4 |]


